icons/t-shirt-line.svg

<svg viewBox="0 0 24 24" fill="currentColor" xmlns="http://www.w3.org/2000/svg"><path d="M14.5135 5.00008L17.1201 2.39348C17.5106 2.00295 18.1438 2.00295 18.5343 2.39348L22.777 6.63612C23.1675 7.02664 23.1675 7.65981 22.777 8.05033L18.9988 11.8285V21.0001C18.9988 21.5524 18.5511 22.0001 17.9988 22.0001H5.9988C5.44652 22.0001 4.9988 21.5524 4.9988 21.0001V11.8285L1.22063 8.05033C0.830103 7.65981 0.830103 7.02664 1.22063 6.63612L5.46327 2.39348C5.85379 2.00295 6.48696 2.00295 6.87748 2.39348L9.48408 5.00008H14.5135ZM15.3419 7.00008H8.65566L6.17037 4.5148L3.34195 7.34323L6.9988 11.0001V20.0001H16.9988V11.0001L20.6557 7.34323L17.8272 4.5148L15.3419 7.00008Z"/></svg>

<svg xmlns="http://www.w3.org/2000/svg" viewBox="0 0 24 24">
    <g>
        <path fill="none" d="M0 0h24v24H0z"/>
        <path fill-rule="nonzero" d="M14.515 5l2.606-2.607a1 1 0 0 1 1.415 0l4.242 4.243a1 1 0 0 1 0 1.414L19 11.828V21a1 1 0 0 1-1 1H6a1 1 0 0 1-1-1v-9.172L1.222 8.05a1 1 0 0 1 0-1.414l4.242-4.243a1 1 0 0 1 1.415 0L9.485 5h5.03zm.828 2H8.657L6.172 4.515 3.343 7.343 7 11v9h10v-9l3.657-3.657-2.829-2.828L15.343 7z"/>
    </g>
</svg>
